X: 96
T:John Kelly's (2)
M:4/4
L:1/8
C:Reel
H:(*)
K:D %i.e. Em
BEEF G3E | FDAD FDAD | BEEF G3A | Beed e4 :|!
gebe gebe | fdad fdad | gebe gebe | fedf e4 |!
gebe gebe | fdad fdad | g4 f3d | Bdef gfed ||
